X: 526
T: Abbey Tavern, The
R: hornpipe
M: 4/4
K: Amajor
|:B,=C|^CEAc eaga|bagb aece|(3faf df eAce|fedc BEGB|
cAEA CEAc|dBFB DBFB|GBgf ec (3dcB|Aaec A2:|
|:cd|ea (3aaa eaca|ea (3aaa c'aec|df (3fff ^dfba|gbfb edcd|
ea (3aaa eaca|Aa (3aaa c'aec|defd caga|(3efe (3dcB A2:|

